X:1
T:Per divina bellezza
T:Philippe de Monte
T:Source:  Harmonia celeste---Anversa---P.Phalesio & G.Bellero---1583. Editor: André Vierendeels (17/11/13).
T:Per divina bellezza
C:Philippe de Monte
%%score [ 1 2 3 4 ]
L:1/8
Q:1/4=120
M:2/2
K:F
V:1 treble nm="Canto" snm="C"
V:2 treble nm="Alto" snm="A"
V:3 treble-8 nm="Tenor" snm="T"
V:4 bass nm="Basso" snm="B"
V:1
 G6 G2 | =B4 c2 c2 | c4 d2 d2- | d2 c2 B4 | A4 z2 B2 | B4 F2 B2- | B2 B2 A2 A2 | d2 d2 B4 | A8 | %9
w: Per di-|vi- na bel-|lez- z'in- dar-|* no mi-|ra, chi-|gl'oc- chi di|_ co- stei gia-|mai non ve-|de,|
 B8 | A6 F2 | G4 A4 | B4 c4 | d6 d2 | cB B4 A2 | B4 d4 | c6 A2 | B2 c2 A4 | G2 D2 B2 F2 | %19
w: co-|me so-|va- men-|t'el- la|gli gi-||ra, non|sa com'|a- mor sa-|na, non- sa com'|
 A2 A2 G4 | G4 z4 | A4 B4- | B4 c4 | A4 A4 | z2 c2 c2 G2 | B2 B2 A4 | A4 B4- | B4 c4 | d8- | %29
w: a- mor sa-|na|et com'|_ an-|ci- de,|non sa com'-|a- mor san-|n'et com'|_ an-|ci-|
 d4 d4 | z8 | z4 c4- | c4 =B4 | c2 G4 A2 | F2 B2 A2 G2 | A4 =B4 | z2 c4 =B2 | c4 F2 F2 | B4 B4 | %39
w: * de,||chi|_ non|sa co- me|dol- c'el- la so-|spi- ra,|chi non|sa co- me|dol- c'el|
 G4 G4 | ^F4 F2 F2 |: G4 A4 | B6 c2 | d6 d2 | B2 B2 A2 GF | GA BG A4 |1 G4 z2 ^F2 :|2 %47
w: la- so-|spi- ra, et|co- me|dol- ce|par- l'e|dol- ce ri- * *||de, et|
 G2 B2 B2 A2 || d8 | =B8 |] %50
w: de et dol- ce|ri-|de.|
V:2
 D6 E2 | G4 A2 A2 | G4 B2 B2- | B2 A2 G4 | ^F4 z2 D2 | F4 D2 G2- | G2 G2 F4- | F2 G2 F2 G2 | %8
w: Per di-|vi- na bel-|lez- z'in- dar-|* ni mi-|ra, chi-|gl'oc- chi di|_ co- stei|_ gia mai non|
 E4 E4 | G8 | F6 D2 | E4 F4 | G8 | ^F4 G2 D2 | G4 F4- | F4 F4 | FE FG A2 A2 | G2 G2 ^F4 | %18
w: ve- de,|co-|me so-|va- men-|t'el-|la gli gi-|* ra,|_ non|sa _ _ _ _ com'|a- mor sa-|
 G2 G2 F2 D2 | E2 F2 D4 | E4 z4 | F8 | G4 G4 | ^F4 F4 | z2 A2 G2 E2 | F2 G2 E4 | ^F8 | G8 | %28
w: na, non sa com'|a- mor sa-|na|et|com' an-|ci- de,|non sa com'|a- mor sa-|na'et-|com'|
 ^F4 G4- | G4 ^F4 | z4 D4- | D4 E4 | G8 | z2 E4 F2 | D2 G2 ^F2 G2 | ^F4 G4 | z2 G4 G2 | A4 B2 B2 | %38
w: an- ci|_ de,|chi|_ non|sa|co- me|dol- c'el- la so-|spi- ra,|chi non|sa co- me|
 F4 G4 | _E4 E4 | D4 D4 |: D4 F4- | F4 G4 | F2 G2 B2 A2 | G2 G2 F2 ED | EF G4 F2 |1 G4 z4 :|2 %47
w: dol- c'el-|la so-|spi- ra,-|et co-|* me|dol- ce par- l'e|dol- ce ri- * *||re,|
 G2 G2 F4 || D2 G4 ^F2 | G8 |] %50
w: de et dol-|ce ri- *|de.|
V:3
 =B6 c2 | d4 f2 f2 | _e4 d4 | f2 f2 d4 | d4 z2 f2 | d6 B2 | _e2 e2 c2 c2 | B2 G2 d4- | d4 ^c4 | %9
w: Per di-|vi- na bel-|lez- z'in-|dar- ni mi-|ra, chi|gl'oc- chi|di co- stei gia|mai non ve-|* de,|
 d8 | d4 A4 | c4 c4 | G8 | A4 B4 | _e4 c4 | d4 B4 | A2 A2 f2 f2 | _e2 c2 d4 | G2 G2 d2 d2 | %19
w: co-|me so-|va- men-|t'el-|la gli|gi- *|ra, non|sa,- non sa com'|a- mor sa-|na, non sa com'|
 c2 c2 =B4 | c4 z4 | d8 | _e4 e4 | d4 d4 | z2 f2 e2 e2 | d2 d2 ^c4 | d8 | z4 G4 | A4 B4 | A4 A4 | %30
w: a- mor sa-|na,|et|com' an-|ci- de,|non sa com'|a- mor sa-|na|et|com' an-|ci- de,|
 z4 =B4- | B4 c4 | d8 | z2 c4 F2 | B2 G2 d2 _e2 | d4 G2 d2- | d2 _e2 d4 | f2 c2 d4- | d4 B4 | %39
w: chi|_ non|sa|co- me|dol- c'el- la so-|spi- ra, chi|_ non sa|co- me dol-|* c'el-|
 B4 c4 | A4 A2 A2 |: =B4 c4 | d4 _e4 | d2 G2 d3 d | d4 d2 d2 | c2 G2 d4 |1 G4 z2 A2 :|2 %47
w: la so-|spi- ra, et|co- me|dol- ce|par- l'e dol- ce|ri- de, et|dol- ce ri-|de, et|
 G2 d2 d2 c2 || B3 A/G/ A4 | G8 |] %50
w: de et dol- ce|ri- * * *|de.|
V:4
 G,6 C,2 | G,4 F,2 F,2 | C4 G,2 B,2- | B,2 F,2 G,4 | D,4 z2 B,2 | B,4 B,2 _E,2- | E,2 _E,2 F,4 | %7
w: Per di-|vi- na bel-|lez- z'in- dar-|* ni mi-|ra, chi|gl'oc- chi di|_ co- stei|
 B,,2 B,4 G,2 | A,4 A,4 | G,8 | D,4 D,4 | C,4 F,4 | _E,8 | D,4 G,4 | _E,4 F,4 | B,,4 B,,4 | %16
w: gia mai non|ve- de,|co-|me so-|va- men-|t'el-|la gli|gi- *|ra, non|
 F,4 z4 | z4 z2 D,2 | B,6 B,2 | A,2 F,2 G,4 | C,8 | z8 | z8 | z8 | z2 A,2 C2 C2 | B,2 G,2 A,4 | %26
w: sa,|non|sa com'|a- mor sa-|na,||||non sa com'|a- mor sa-|
 D,8 | _E,4 E,4 | D,8 | D,8 | z4 G,4- | G,4 C,4 | G,8 | z8 | z8 | z4 z2 G,2- | G,2 C,2 G,4 | %37
w: na'et-|com' an-|ci-|de,|chi|_ non|sa|||chi|_ non sa|
 F,2 F,2 B,4- | B,4 _E,4 | _E,4 C,4 | D,4 D,2 D,2 |:"^#" G,4 F,4 | B,4 _E,4 | B,3 A, G,2 ^F,2 | %44
w: co- me dol-|* c'el|la so-|spi- ra, et|co- me|dol- ce|par- l'e dol- ce|
 G,4 D,4 | z8 |1 z4 z2 D,2 :|2 z2 G,2 B,2 F,2 ||"^b" G,3 F,/E,/ D,4 | G,8 |] %50
w: ri- de,||et|et dol- ce|ri- * * *|de.|

